public/svg/letterS.svg

<svg xmlns="http://www.w3.org/2000/svg" width="48" height="48" fill="none" xmlns:v="https://vecta.io/nano"><circle cx="24" cy="24" r="24" fill="#f4f7ff"/><path d="M24.688 31.126c-.924 0-1.752-.15-2.484-.45s-1.32-.744-1.764-1.332c-.432-.588-.66-1.296-.684-2.124h3.276c.048.468.21.828.486 1.08.276.24.636.36 1.08.36.456 0 .816-.102 1.08-.306.264-.216.396-.51.396-.882 0-.312-.108-.57-.324-.774-.204-.204-.462-.372-.774-.504-.3-.132-.732-.282-1.296-.45-.816-.252-1.482-.504-1.998-.756s-.96-.624-1.332-1.116-.558-1.134-.558-1.926c0-1.176.426-2.094 1.278-2.754.852-.672 1.962-1.008 3.33-1.008 1.392 0 2.514.336 3.366 1.008.852.66 1.308 1.584 1.368 2.772h-3.33c-.024-.408-.174-.726-.45-.954-.276-.24-.63-.36-1.062-.36-.372 0-.672.102-.9.306-.228.192-.342.474-.342.846 0 .408.192.726.576.954s.984.474 1.8.738c.816.276 1.476.54 1.98.792.516.252.96.618 1.332 1.098s.558 1.098.558 1.854c0 .72-.186 1.374-.558 1.962-.36.588-.888 1.056-1.584 1.404s-1.518.522-2.466.522z" fill="#1b5bf7"/></svg>

<svg xmlns="http://www.w3.org/2000/svg" width="48" height="48" viewBox="0 0 48 48" fill="none">
<circle cx="24" cy="24" r="24" fill="#F4F7FF"/>
<path d="M24.688 31.126C23.764 31.126 22.936 30.976 22.204 30.676C21.472 30.376 20.884 29.932 20.44 29.344C20.008 28.756 19.78 28.048 19.756 27.22H23.032C23.08 27.688 23.242 28.048 23.518 28.3C23.794 28.54 24.154 28.66 24.598 28.66C25.054 28.66 25.414 28.558 25.678 28.354C25.942 28.138 26.074 27.844 26.074 27.472C26.074 27.16 25.966 26.902 25.75 26.698C25.546 26.494 25.288 26.326 24.976 26.194C24.676 26.062 24.244 25.912 23.68 25.744C22.864 25.492 22.198 25.24 21.682 24.988C21.166 24.736 20.722 24.364 20.35 23.872C19.978 23.38 19.792 22.738 19.792 21.946C19.792 20.77 20.218 19.852 21.07 19.192C21.922 18.52 23.032 18.184 24.4 18.184C25.792 18.184 26.914 18.52 27.766 19.192C28.618 19.852 29.074 20.776 29.134 21.964H25.804C25.78 21.556 25.63 21.238 25.354 21.01C25.078 20.77 24.724 20.65 24.292 20.65C23.92 20.65 23.62 20.752 23.392 20.956C23.164 21.148 23.05 21.43 23.05 21.802C23.05 22.21 23.242 22.528 23.626 22.756C24.01 22.984 24.61 23.23 25.426 23.494C26.242 23.77 26.902 24.034 27.406 24.286C27.922 24.538 28.366 24.904 28.738 25.384C29.11 25.864 29.296 26.482 29.296 27.238C29.296 27.958 29.11 28.612 28.738 29.2C28.378 29.788 27.85 30.256 27.154 30.604C26.458 30.952 25.636 31.126 24.688 31.126Z" fill="#1B5BF7"/>
</svg>
